apps/scalable/defcon.svg

<svg xmlns="http://www.w3.org/2000/svg" style="isolation:isolate" width="256" height="256"><defs><filter id="a" width="270.648" height="254.338" x="-7.32" y="2.95" filterUnits="userSpaceOnUse"><feGaussianBlur xmlns="http://www.w3.org/2000/svg" in="SourceGraphic" stdDeviation="4.294"/><feOffset xmlns="http://www.w3.org/2000/svg" dy="4" result="pf_100_offsetBlur"/><feFlood xmlns="http://www.w3.org/2000/svg" flood-opacity=".4"/><feComposite xmlns="http://www.w3.org/2000/svg" in2="pf_100_offsetBlur" operator="in" result="pf_100_dropShadow"/><feBlend xmlns="http://www.w3.org/2000/svg" in="SourceGraphic" in2="pf_100_dropShadow"/></filter></defs><path fill="#333" d="M165.685 11.947c74.055 0 84.639 10.557 84.639 84.544v59.251c0 73.986-10.584 84.543-84.639 84.543h-75.37c-74.055 0-84.639-10.557-84.639-84.543V96.491c0-73.987 10.584-84.544 84.639-84.544h75.37z" filter="url(#a)"/><g filter="url(#b)"><path fill="#BC1938" d="M211.667 126.648a83.003 83.003 0 0 1-41.495 71.896 83 83 0 0 1-124.505-71.896 83 83 0 1 1 166 0z"/><path fill="#EAB305" d="M164.633 64.352l-24.9 43.125.1.052a22.051 22.051 0 0 1 5.148 4.152 22.095 22.095 0 0 1 4.537 7.535 22.042 22.042 0 0 1 1.282 7.431h49.8a71.932 71.932 0 0 0-35.967-62.295zM92.7 64.352a71.934 71.934 0 0 0-35.967 62.295h49.8c0-.738.037-1.475.111-2.209a22.16 22.16 0 0 1 .875-4.332 21.98 21.98 0 0 1 .759-2.079 21.939 21.939 0 0 1 3.454-5.639 22.216 22.216 0 0 1 3.168-3.08 22.59 22.59 0 0 1 1.801-1.289c.299-.181.602-.355.91-.523L92.7 64.352zM117.598 145.819L92.7 188.944a71.931 71.931 0 0 0 71.933 0L139.725 145.8c-.332.201-.668.395-1.01.579-.657.334-1.331.636-2.019.903-.688.269-1.389.502-2.1.701a22.415 22.415 0 0 1-4.354.752 22.076 22.076 0 0 1-8.721-1.131 22.034 22.034 0 0 1-2.056-.817 22.286 22.286 0 0 1-1.867-.968zM142.5 126.648c0 7.64-6.193 13.833-13.833 13.833-7.64 0-13.834-6.193-13.834-13.833 0-7.64 6.194-13.833 13.834-13.833s13.833 6.193 13.833 13.833z"/></g><defs><filter id="b" width="226" height="226.037" x="15.67" y="17.63" filterUnits="userSpaceOnUse"><feGaussianBlur xmlns="http://www.w3.org/2000/svg" in="SourceGraphic" stdDeviation="4.294"/><feOffset xmlns="http://www.w3.org/2000/svg" dy="4" result="pf_100_offsetBlur"/><feFlood xmlns="http://www.w3.org/2000/svg" flood-opacity=".4"/><feComposite xmlns="http://www.w3.org/2000/svg" in2="pf_100_offsetBlur" operator="in" result="pf_100_dropShadow"/><feBlend xmlns="http://www.w3.org/2000/svg" in="SourceGraphic" in2="pf_100_dropShadow"/></filter></defs><g opacity=".4"><linearGradient id="c" x1=".517" x2=".517" y2="1"><stop offset="0%" stop-color="#fff"/><stop offset="12.5%" stop-opacity=".098" stop-color="#fff"/><stop offset="92.5%" stop-opacity=".098"/><stop offset="100%" stop-opacity=".498"/></linearGradient><path fill="none" stroke="url(#c)" stroke-linecap="round" stroke-linejoin="round" stroke-width="4.077" d="M165.685 11.947c74.055 0 84.639 10.557 84.639 84.544v59.251c0 73.986-10.584 84.543-84.639 84.543h-75.37c-74.055 0-84.639-10.557-84.639-84.543V96.491c0-73.987 10.584-84.544 84.639-84.544h75.37z" vector-effect="non-scaling-stroke"/></g></svg>

<svg xmlns="http://www.w3.org/2000/svg" style="isolation:isolate" width="256" height="256" viewBox="0 0 256 256">
 <defs>
  <filter id="52ouKysE97gBng53ZpHOMwjwmPjUHhqP" width="270.648" height="254.338" x="-7.32" y="2.95" filterUnits="userSpaceOnUse">
   <feGaussianBlur xmlns="http://www.w3.org/2000/svg" in="SourceGraphic" stdDeviation="4.294"/>
   <feOffset xmlns="http://www.w3.org/2000/svg" dx="0" dy="4" result="pf_100_offsetBlur"/>
   <feFlood xmlns="http://www.w3.org/2000/svg" flood-opacity=".4"/>
   <feComposite xmlns="http://www.w3.org/2000/svg" in2="pf_100_offsetBlur" operator="in" result="pf_100_dropShadow"/>
   <feBlend xmlns="http://www.w3.org/2000/svg" in="SourceGraphic" in2="pf_100_dropShadow" mode="normal"/>
  </filter>
 </defs>
 <g filter="url(#52ouKysE97gBng53ZpHOMwjwmPjUHhqP)">
  <path fill="#333333" d="M 165.685 11.947 C 239.74 11.947 250.324 22.504 250.324 96.491 L 250.324 155.742 C 250.324 229.728 239.74 240.285 165.685 240.285 L 90.315 240.285 C 16.26 240.285 5.676 229.728 5.676 155.742 L 5.676 96.491 C 5.676 22.504 16.26 11.947 90.315 11.947 L 165.685 11.947 Z"/>
 </g>
 <g filter="url(#Na6fkdHHNzmeGbxVzOAsPsTSWosMK1bw)">
  <path fill="#BC1938" d="M 211.667 126.648 C 211.673 156.305 195.855 183.713 170.172 198.544 C 144.489 213.374 112.844 213.374 87.161 198.544 C 61.478 183.713 45.66 156.305 45.667 126.648 C 45.66 96.991 61.478 69.583 87.161 54.752 C 112.844 39.922 144.489 39.922 170.172 54.752 C 195.855 69.583 211.673 96.991 211.667 126.648 L 211.667 126.648 Z"/>
  <path fill="#EAB305" d="M 164.633 64.352 L 139.733 107.477 C 139.767 107.494 139.8 107.511 139.833 107.529 C 140.47 107.9 141.088 108.304 141.685 108.737 C 142.281 109.171 142.856 109.635 143.406 110.127 C 143.956 110.618 144.482 111.137 144.981 111.681 C 145.48 112.225 145.951 112.793 146.393 113.384 C 146.834 113.975 147.246 114.587 147.627 115.219 C 148.008 115.852 148.357 116.503 148.673 117.171 C 148.989 117.838 149.271 118.521 149.518 119.216 C 149.766 119.911 149.979 120.618 150.156 121.334 C 150.333 122.051 150.473 122.776 150.577 123.506 C 150.682 124.237 150.75 124.972 150.781 125.709 C 150.794 126.021 150.8 126.334 150.8 126.647 L 200.6 126.647 C 200.6 100.948 186.889 77.201 164.633 64.352 L 164.633 64.352 Z"/>
  <path fill="#EAB305" d="M 92.7 64.352 C 70.444 77.201 56.734 100.948 56.733 126.647 L 106.533 126.647 C 106.533 125.909 106.57 125.172 106.644 124.438 C 106.717 123.704 106.826 122.974 106.972 122.25 C 107.119 121.527 107.301 120.811 107.519 120.106 C 107.737 119.401 107.99 118.707 108.278 118.027 C 108.564 117.348 108.884 116.683 109.237 116.036 C 109.591 115.388 109.977 114.759 110.394 114.149 C 110.81 113.54 111.257 112.952 111.732 112.388 C 112.207 111.823 112.711 111.282 113.24 110.767 C 113.769 110.253 114.323 109.766 114.9 109.308 C 115.479 108.849 116.08 108.419 116.701 108.019 C 117 107.838 117.303 107.664 117.611 107.496 L 92.7 64.352 Z"/>
  <path fill="#EAB305" d="M 117.598 145.819 L 92.7 188.944 C 114.956 201.794 142.377 201.794 164.633 188.944 L 139.725 145.8 C 139.393 146.001 139.057 146.195 138.715 146.379 C 138.058 146.713 137.384 147.015 136.696 147.282 C 136.008 147.551 135.307 147.784 134.596 147.983 C 133.885 148.18 133.165 148.341 132.438 148.467 C 131.711 148.593 130.978 148.682 130.242 148.735 C 129.506 148.788 128.767 148.803 128.029 148.782 C 127.292 148.761 126.556 148.702 125.824 148.607 C 125.093 148.513 124.366 148.381 123.648 148.214 C 122.929 148.046 122.219 147.843 121.521 147.604 C 120.823 147.366 120.136 147.094 119.465 146.787 C 118.828 146.494 118.205 146.171 117.598 145.819 L 117.598 145.819 Z"/>
  <path fill="#EAB305" d="M 142.5 126.648 C 142.5 134.288 136.307 140.481 128.667 140.481 C 121.027 140.481 114.833 134.288 114.833 126.648 C 114.833 119.008 121.027 112.815 128.667 112.815 C 136.307 112.815 142.5 119.008 142.5 126.648 Z"/>
 </g>
 <defs>
  <filter id="Na6fkdHHNzmeGbxVzOAsPsTSWosMK1bw" width="226" height="226.037" x="15.67" y="17.63" filterUnits="userSpaceOnUse">
   <feGaussianBlur xmlns="http://www.w3.org/2000/svg" in="SourceGraphic" stdDeviation="4.294"/>
   <feOffset xmlns="http://www.w3.org/2000/svg" dx="0" dy="4" result="pf_100_offsetBlur"/>
   <feFlood xmlns="http://www.w3.org/2000/svg" flood-opacity=".4"/>
   <feComposite xmlns="http://www.w3.org/2000/svg" in2="pf_100_offsetBlur" operator="in" result="pf_100_dropShadow"/>
   <feBlend xmlns="http://www.w3.org/2000/svg" in="SourceGraphic" in2="pf_100_dropShadow" mode="normal"/>
  </filter>
 </defs>
 <g opacity=".4">
  <linearGradient id="_lgradient_205" x1=".517" x2=".517" y1="0" y2="1">
   <stop offset="0%" style="stop-color:rgb(255,255,255)"/>
   <stop offset="12.5%" stop-opacity=".098" style="stop-color:rgb(255,255,255)"/>
   <stop offset="92.5%" stop-opacity=".098" style="stop-color:rgb(0,0,0)"/>
   <stop offset="100%" stop-opacity=".498" style="stop-color:rgb(0,0,0)"/>
  </linearGradient>
  <path fill="none" stroke="url(#_lgradient_205)" stroke-linecap="round" stroke-linejoin="round" stroke-width="4.077" d="M 165.685 11.947 C 239.74 11.947 250.324 22.504 250.324 96.491 L 250.324 155.742 C 250.324 229.728 239.74 240.285 165.685 240.285 L 90.315 240.285 C 16.26 240.285 5.676 229.728 5.676 155.742 L 5.676 96.491 C 5.676 22.504 16.26 11.947 90.315 11.947 L 165.685 11.947 Z" vector-effect="non-scaling-stroke"/>
 </g>
</svg>
